src/MEGASync/gui/images/uptodate.svg

<svg height="22" viewBox="0 0 22 22" width="22" xmlns="http://www.w3.org/2000/svg" xmlns:xlink="http://www.w3.org/1999/xlink"><linearGradient id="a" gradientUnits="userSpaceOnUse" x1="10" x2="10" y2="20"><stop offset="0" stop-color="#ff1a21"/><stop offset="1" stop-color="#d90007"/></linearGradient><circle cx="10" cy="11" fill="url(#a)" r="10"/><path d="m15 14.45a.3.3 0 0 1 -.3.3h-1.256a.3.3 0 0 1 -.3-.3v-3.922a.037.037 0 0 0 -.063-.027l-2.666 2.7a.587.587 0 0 1 -.838 0l-2.662-2.701a.037.037 0 0 0 -.063.027v3.923a.3.3 0 0 1 -.3.3h-1.252a.3.3 0 0 1 -.3-.3v-6.9a.3.3 0 0 1 .3-.3h.862a.589.589 0 0 1 .419.176l3.319 3.355a.147.147 0 0 0 .21 0l3.314-3.356a.589.589 0 0 1 .419-.176h.857a.3.3 0 0 1 .3.3v6.9z" fill="#fff" fill-rule="evenodd"/></svg>

<svg xmlns="http://www.w3.org/2000/svg" xmlns:xlink="http://www.w3.org/1999/xlink" width="22" height="22" viewBox="0 0 22 22">
  <metadata><?xpacket begin="﻿" id="W5M0MpCehiHzreSzNTczkc9d"?>
<x:xmpmeta xmlns:x="adobe:ns:meta/" x:xmptk="Adobe XMP Core 5.6-c138 79.159824, 2016/09/14-01:09:01        ">
   <rdf:RDF xmlns:rdf="http://www.w3.org/1999/02/22-rdf-syntax-ns#">
      <rdf:Description rdf:about=""/>
   </rdf:RDF>
</x:xmpmeta>
<?xpacket end="w"?></metadata>
<defs>
     <linearGradient id="linear-gradient" x1="10" x2="10" y2="20" gradientUnits="userSpaceOnUse">
      <stop offset="0" stop-color="#ff1a21"/>
      <stop offset="1" stop-color="#d90007"/>
    </linearGradient>    
  </defs>
    <circle  fill="url(#linear-gradient)" class="cls-1" cx="10" cy="11" r="10"/>
  <path style="fill: #fff;fill-rule: evenodd;" id="Shape_2_copy" data-name="Shape 2 copy" class="cls-2" d="M15,14.45a0.3,0.3,0,0,1-.3 .3H13.444a0.3,0.3,0,0,1-.3-0.3V10.528a0.037,0.037,0,0,0-.063-0.027l-2.666,2.7a0.587,0.587,0,0,1-.838,0L6.915,10.5a0.037,0.037,0,0,0-.063 .027V14.45a0.3,0.3,0,0,1-.3 .3H5.3a0.3,0.3,0,0,1-.3-0.3V7.55a0.3,0.3,0,0,1,.3-0.3H6.162a0.589,0.589,0,0,1,.419 .176L9.9,10.781a0.147,0.147,0,0,0,.21,0l3.314-3.356a0.589,0.589,0,0,1,.419-0.176H14.7a0.3,0.3,0,0,1,.3 .3v6.9Z"/>
</svg>
